packages/ui-solid/icons/bot_menu_24.svg

<svg width="24" height="24" viewBox="0 0 24 24" fill="none" xmlns="http://www.w3.org/2000/svg">
<path fill-rule="evenodd" clip-rule="evenodd" d="M11.9573 2.1H12.0427C13.6493 2.09999 14.9137 2.09999 15.9282 2.18808C16.963 2.27793 17.8226 2.46461 18.5945 2.88895C19.6551 3.47204 20.528 4.34487 21.1111 5.40551C21.5354 6.17737 21.7221 7.03704 21.8119 8.07183C21.9 9.08629 21.9 10.3507 21.9 11.9573V12.0427C21.9 13.6493 21.9 14.9137 21.8119 15.9282C21.7221 16.963 21.5354 17.8226 21.1111 18.5945C20.528 19.6551 19.6551 20.528 18.5945 21.111C17.8226 21.5354 16.963 21.7221 15.9282 21.8119C14.9137 21.9 13.6493 21.9 12.0427 21.9H11.9573C10.3507 21.9 9.08629 21.9 8.07184 21.8119C7.03705 21.7221 6.17738 21.5354 5.40552 21.111C4.34488 20.528 3.47204 19.6551 2.88895 18.5945C2.46462 17.8226 2.27794 16.963 2.18808 15.9282C2.09999 14.9137 2.1 13.6493 2.10001 12.0427V11.9573C2.1 10.3507 2.09999 9.08629 2.18808 8.07183C2.27794 7.03704 2.46462 6.17737 2.88895 5.40551C3.47204 4.34487 4.34488 3.47204 5.40552 2.88895C6.17738 2.46461 7.03705 2.27793 8.07184 2.18808C9.0863 2.09999 10.3507 2.09999 11.9573 2.1ZM8.22755 3.98133C7.31142 4.06088 6.7334 4.21301 6.27267 4.4663C5.51136 4.88484 4.88484 5.51135 4.46631 6.27267C4.21302 6.7334 4.06089 7.31141 3.98134 8.22754C3.9008 9.15503 3.90001 10.3414 3.90001 12C3.90001 13.6586 3.9008 14.845 3.98134 15.7725C4.06089 16.6886 4.21302 17.2666 4.46631 17.7273C4.88484 18.4886 5.51136 19.1152 6.27267 19.5337C6.7334 19.787 7.31142 19.9391 8.22755 20.0187C9.15504 20.0992 10.3414 20.1 12 20.1C13.6586 20.1 14.845 20.0992 15.7725 20.0187C16.6886 19.9391 17.2666 19.787 17.7273 19.5337C18.4887 19.1152 19.1152 18.4886 19.5337 17.7273C19.787 17.2666 19.9391 16.6886 20.0187 15.7725C20.0992 14.845 20.1 13.6586 20.1 12C20.1 10.3414 20.0992 9.15503 20.0187 8.22754C19.9391 7.31141 19.787 6.7334 19.5337 6.27267C19.1152 5.51135 18.4887 4.88484 17.7273 4.4663C17.2666 4.21301 16.6886 4.06088 15.7725 3.98133C14.845 3.90079 13.6586 3.9 12 3.9C10.3414 3.9 9.15504 3.90079 8.22755 3.98133ZM8.59154 5.62174H8.66269C9.02567 5.62171 9.35595 5.62169 9.63047 5.64657C9.9263 5.67338 10.2445 5.73467 10.5509 5.91155C10.8797 6.10142 11.1528 6.3745 11.3427 6.70335C11.5196 7.00972 11.5808 7.32792 11.6077 7.62376C11.6325 7.89828 11.6325 8.22856 11.6325 8.59154V8.66267C11.6325 9.02566 11.6325 9.35594 11.6077 9.63046C11.5808 9.92629 11.5196 10.2445 11.3427 10.5509C11.1528 10.8797 10.8797 11.1528 10.5509 11.3427C10.2445 11.5195 9.9263 11.5808 9.63047 11.6077C9.35594 11.6325 9.02567 11.6325 8.66268 11.6325H8.59155C8.22857 11.6325 7.89829 11.6325 7.62377 11.6077C7.32793 11.5808 7.00973 11.5195 6.70336 11.3427C6.3745 11.1528 6.10142 10.8797 5.91156 10.5509C5.73468 10.2445 5.67339 9.92629 5.64657 9.63046C5.62169 9.35594 5.62172 9.02566 5.62174 8.66268V8.59153C5.62172 8.22855 5.62169 7.89828 5.64657 7.62376C5.67339 7.32792 5.73468 7.00972 5.91156 6.70335C6.10143 6.3745 6.37451 6.10142 6.70336 5.91155C7.00973 5.73467 7.32793 5.67338 7.62377 5.64657C7.89829 5.62169 8.22856 5.62171 8.59154 5.62174ZM7.60275 7.47074C7.54797 7.5025 7.50249 7.54801 7.47073 7.60279C7.46635 7.61333 7.45066 7.6601 7.43923 7.78623C7.42261 7.9696 7.42175 8.217 7.42175 8.62711C7.42175 9.03721 7.42261 9.28462 7.43923 9.46798C7.45066 9.59412 7.46635 9.64089 7.47073 9.65143C7.50249 9.70621 7.54802 9.75174 7.6028 9.7835C7.61335 9.78788 7.66012 9.80357 7.78624 9.815C7.9696 9.83162 8.21701 9.83248 8.62712 9.83248C9.03722 9.83248 9.28463 9.83162 9.46799 9.815C9.59413 9.80357 9.64089 9.78787 9.65143 9.78349C9.70622 9.75174 9.75174 9.70621 9.7835 9.65143C9.78788 9.64089 9.80357 9.59412 9.81501 9.46798C9.83162 9.28462 9.83249 9.03721 9.83249 8.62711C9.83249 8.217 9.83162 7.9696 9.81501 7.78623C9.80358 7.66011 9.78788 7.61334 9.7835 7.60279C9.75175 7.54801 9.70622 7.50248 9.65143 7.47072C9.64089 7.46634 9.59412 7.45065 9.46799 7.43922C9.28463 7.4226 9.03722 7.42174 8.62712 7.42174C8.21701 7.42174 7.9696 7.4226 7.78624 7.43922C7.6601 7.45065 7.61329 7.46636 7.60275 7.47074ZM15.3373 5.62174H15.4085C15.7715 5.62171 16.1017 5.62169 16.3762 5.64657C16.6721 5.67338 16.9903 5.73467 17.2967 5.91155C17.6255 6.10142 17.8986 6.3745 18.0885 6.70335C18.2653 7.00972 18.3266 7.32792 18.3534 7.62376C18.3783 7.89828 18.3783 8.22856 18.3783 8.59154V8.66267C18.3783 9.02566 18.3783 9.35594 18.3534 9.63046C18.3266 9.92629 18.2653 10.2445 18.0884 10.5509C17.8986 10.8797 17.6255 11.1528 17.2967 11.3427C16.9903 11.5195 16.6721 11.5808 16.3762 11.6077C16.1017 11.6325 15.7714 11.6325 15.4085 11.6325H15.3373C14.9743 11.6325 14.6441 11.6325 14.3695 11.6077C14.0737 11.5808 13.7555 11.5195 13.4491 11.3427C13.1203 11.1528 12.8472 10.8797 12.6573 10.5509C12.4805 10.2445 12.4192 9.92629 12.3924 9.63046C12.3675 9.35594 12.3675 9.02566 12.3675 8.66267V8.59154C12.3675 8.22856 12.3675 7.89828 12.3924 7.62376C12.4192 7.32792 12.4805 7.00972 12.6573 6.70335C12.8472 6.3745 13.1203 6.10142 13.4491 5.91155C13.7555 5.73467 14.0737 5.67338 14.3695 5.64657C14.6441 5.62169 14.9743 5.62171 15.3373 5.62174ZM14.3485 7.47074C14.2938 7.5025 14.2483 7.54801 14.2165 7.60279C14.2121 7.61334 14.1964 7.66011 14.185 7.78623C14.1684 7.9696 14.1675 8.217 14.1675 8.62711C14.1675 9.03721 14.1684 9.28462 14.185 9.46798C14.1964 9.59413 14.2121 9.64089 14.2165 9.65143C14.2483 9.70621 14.2938 9.75174 14.3486 9.78349C14.3591 9.78787 14.4059 9.80357 14.532 9.815C14.7154 9.83162 14.9628 9.83248 15.3729 9.83248C15.783 9.83248 16.0304 9.83162 16.2138 9.815C16.3399 9.80357 16.3867 9.78787 16.3972 9.78349C16.452 9.75174 16.4975 9.70621 16.5293 9.65142C16.5337 9.64087 16.5494 9.5941 16.5608 9.46798C16.5774 9.28462 16.5783 9.03721 16.5783 8.62711C16.5783 8.217 16.5774 7.9696 16.5608 7.78623C16.5494 7.66011 16.5337 7.61334 16.5293 7.60279C16.4975 7.54801 16.452 7.50248 16.3972 7.47072C16.3867 7.46634 16.3399 7.45065 16.2138 7.43922C16.0304 7.4226 15.783 7.42174 15.3729 7.42174C14.9628 7.42174 14.7154 7.4226 14.532 7.43922C14.4059 7.45065 14.3591 7.46636 14.3485 7.47074ZM8.59155 12.3675H8.66268C9.02567 12.3675 9.35594 12.3675 9.63047 12.3923C9.9263 12.4192 10.2445 12.4804 10.5509 12.6573C10.8797 12.8472 11.1528 13.1203 11.3427 13.4491C11.5196 13.7555 11.5808 14.0737 11.6077 14.3695C11.6325 14.6441 11.6325 14.9743 11.6325 15.3373V15.4085C11.6325 15.7714 11.6325 16.1017 11.6077 16.3762C11.5808 16.6721 11.5196 16.9903 11.3427 17.2966C11.1528 17.6255 10.8797 17.8986 10.5509 18.0884C10.2445 18.2653 9.9263 18.3266 9.63047 18.3534C9.35594 18.3783 9.02567 18.3783 8.66268 18.3783H8.59155C8.22857 18.3783 7.89829 18.3783 7.62377 18.3534C7.32793 18.3266 7.00973 18.2653 6.70336 18.0884C6.37451 17.8986 6.10143 17.6255 5.91156 17.2966C5.73468 16.9903 5.67339 16.6721 5.64657 16.3762C5.62169 16.1017 5.62172 15.7714 5.62174 15.4085V15.3373C5.62172 14.9743 5.62169 14.6441 5.64657 14.3695C5.67339 14.0737 5.73468 13.7555 5.91156 13.4491C6.10142 13.1203 6.3745 12.8472 6.70336 12.6573C7.00973 12.4804 7.32793 12.4192 7.62377 12.3923C7.89829 12.3675 8.22857 12.3675 8.59155 12.3675ZM7.60276 14.2165C7.54798 14.2483 7.50249 14.2938 7.47073 14.3486C7.46635 14.3591 7.45066 14.4059 7.43923 14.532C7.42261 14.7154 7.42175 14.9628 7.42175 15.3729C7.42175 15.783 7.42261 16.0304 7.43923 16.2138C7.45066 16.3399 7.46635 16.3867 7.47073 16.3972C7.50249 16.452 7.54802 16.4975 7.6028 16.5293C7.61335 16.5337 7.66012 16.5493 7.78624 16.5608C7.9696 16.5774 8.21701 16.5783 8.62712 16.5783C9.03722 16.5783 9.28463 16.5774 9.46799 16.5608C9.59411 16.5493 9.64088 16.5337 9.65143 16.5293C9.70622 16.4975 9.75174 16.452 9.7835 16.3972C9.78788 16.3867 9.80357 16.3399 9.81501 16.2138C9.83162 16.0304 9.83249 15.783 9.83249 15.3729C9.83249 14.9628 9.83162 14.7154 9.81501 14.532C9.80358 14.4059 9.78788 14.3591 9.7835 14.3486C9.75174 14.2938 9.70621 14.2483 9.65143 14.2165C9.64088 14.2121 9.59411 14.1964 9.46799 14.185C9.28463 14.1684 9.03722 14.1675 8.62712 14.1675C8.21701 14.1675 7.9696 14.1684 7.78624 14.185C7.66011 14.1964 7.6133 14.2121 7.60276 14.2165ZM15.3373 12.3675H15.4085C15.7714 12.3675 16.1017 12.3675 16.3762 12.3923C16.6721 12.4192 16.9903 12.4804 17.2967 12.6573C17.6255 12.8472 17.8986 13.1203 18.0885 13.4491C18.2653 13.7555 18.3266 14.0737 18.3534 14.3695C18.3783 14.6441 18.3783 14.9743 18.3783 15.3373V15.4085C18.3783 15.7714 18.3783 16.1017 18.3534 16.3762C18.3266 16.6721 18.2653 16.9903 18.0884 17.2966C17.8986 17.6255 17.6255 17.8986 17.2967 18.0884C16.9903 18.2653 16.6721 18.3266 16.3762 18.3534C16.1017 18.3783 15.7714 18.3783 15.4085 18.3783H15.3373C14.9743 18.3783 14.6441 18.3783 14.3695 18.3534C14.0737 18.3266 13.7555 18.2653 13.4491 18.0884C13.1203 17.8986 12.8472 17.6255 12.6573 17.2966C12.4805 16.9903 12.4192 16.6721 12.3924 16.3762C12.3675 16.1017 12.3675 15.7714 12.3675 15.4085V15.3373C12.3675 14.9743 12.3675 14.6441 12.3924 14.3695C12.4192 14.0737 12.4805 13.7555 12.6573 13.4491C12.8472 13.1203 13.1203 12.8472 13.4491 12.6573C13.7555 12.4804 14.0737 12.4192 14.3695 12.3923C14.6441 12.3675 14.9743 12.3675 15.3373 12.3675ZM14.3485 14.2165C14.2938 14.2483 14.2483 14.2938 14.2165 14.3486C14.2121 14.3591 14.1964 14.4059 14.185 14.532C14.1684 14.7154 14.1675 14.9628 14.1675 15.3729C14.1675 15.783 14.1684 16.0304 14.185 16.2138C14.1964 16.3399 14.2121 16.3867 14.2165 16.3972C14.2483 16.452 14.2938 16.4975 14.3486 16.5293C14.3591 16.5337 14.4059 16.5493 14.532 16.5608C14.7154 16.5774 14.9628 16.5783 15.3729 16.5783C15.783 16.5783 16.0304 16.5774 16.2138 16.5608C16.3399 16.5493 16.3867 16.5337 16.3972 16.5293C16.452 16.4975 16.4975 16.452 16.5293 16.3972C16.5337 16.3867 16.5494 16.3399 16.5608 16.2138C16.5774 16.0304 16.5783 15.783 16.5783 15.3729C16.5783 14.9628 16.5774 14.7154 16.5608 14.532C16.5494 14.4059 16.5337 14.3591 16.5293 14.3486C16.4975 14.2938 16.452 14.2483 16.3972 14.2165C16.3867 14.2121 16.3399 14.1964 16.2138 14.185C16.0304 14.1684 15.783 14.1675 15.3729 14.1675C14.9628 14.1675 14.7154 14.1684 14.532 14.185C14.4059 14.1964 14.3591 14.2121 14.3485 14.2165Z" fill="#007AFF"/>
</svg>

<svg xmlns="http://www.w3.org/2000/svg" width="24" height="24" fill="none"><path fill="currentColor" fill-rule="evenodd" d="M11.957 2.1h.086c1.606 0 2.87 0 3.885.088 1.035.09 1.895.277 2.666.7a6.4 6.4 0 0 1 2.517 2.518c.424.771.611 1.631.7 2.666.089 1.014.089 2.279.089 3.885v.086c0 1.606 0 2.87-.088 3.885-.09 1.035-.277 1.895-.7 2.666a6.4 6.4 0 0 1-2.517 2.517c-.772.424-1.632.611-2.667.7-1.014.089-2.279.089-3.885.089h-.086c-1.606 0-2.87 0-3.885-.088-1.035-.09-1.895-.277-2.666-.701a6.4 6.4 0 0 1-2.517-2.517c-.424-.771-.611-1.631-.7-2.666C2.1 14.914 2.1 13.65 2.1 12.043v-.086c0-1.606 0-2.87.088-3.885.09-1.035.277-1.895.7-2.666a6.4 6.4 0 0 1 2.518-2.517c.771-.424 1.631-.611 2.666-.7C9.086 2.1 10.35 2.1 11.957 2.1m-3.73 1.881c-.916.08-1.494.232-1.954.485a4.6 4.6 0 0 0-1.807 1.807c-.253.46-.405 1.038-.485 1.955C3.901 9.155 3.9 10.34 3.9 12s0 2.845.081 3.773c.08.916.232 1.494.485 1.954a4.6 4.6 0 0 0 1.807 1.807c.46.253 1.038.405 1.955.485.927.08 2.113.081 3.772.081s2.845 0 3.773-.081c.916-.08 1.494-.232 1.954-.485a4.6 4.6 0 0 0 1.807-1.807c.253-.46.405-1.038.485-1.954.08-.928.081-2.114.081-3.773s0-2.845-.081-3.772c-.08-.917-.232-1.495-.485-1.955a4.6 4.6 0 0 0-1.807-1.807c-.46-.253-1.038-.405-1.954-.485-.928-.08-2.114-.081-3.773-.081s-2.845 0-3.772.081m.365 1.64h.07c.364 0 .694 0 .968.026.296.026.614.088.92.265.33.19.603.463.793.791.177.307.238.625.265.92.024.275.024.606.024.969v.07c0 .364 0 .694-.024.968-.027.296-.088.614-.265.92a2.16 2.16 0 0 1-.792.793c-.306.177-.625.238-.92.265-.275.024-.605.024-.968.024h-.071c-.363 0-.694 0-.968-.024-.296-.027-.614-.088-.92-.265a2.16 2.16 0 0 1-.792-.792 2.2 2.2 0 0 1-.265-.92c-.025-.275-.025-.605-.025-.968v-.071c0-.363 0-.694.025-.968a2.2 2.2 0 0 1 .265-.92c.19-.33.463-.603.791-.792.307-.177.625-.239.92-.265.275-.025.606-.025.969-.025m-.99 1.85a.36.36 0 0 0-.131.132.7.7 0 0 0-.032.183c-.016.184-.017.431-.017.841s0 .658.017.841a.7.7 0 0 0 .032.183q.048.083.132.133c.01.004.057.02.183.031.184.017.431.017.841.017s.658 0 .841-.017a.7.7 0 0 0 .183-.032.36.36 0 0 0 .133-.132.7.7 0 0 0 .031-.183c.017-.183.017-.43.017-.84 0-.411 0-.658-.017-.842a.7.7 0 0 0-.031-.183.36.36 0 0 0-.133-.132.7.7 0 0 0-.183-.032c-.183-.016-.43-.017-.84-.017-.411 0-.658 0-.842.017a.7.7 0 0 0-.183.032m7.735-1.85h.072c.362 0 .693 0 .967.026.296.026.614.088.92.265.33.19.603.463.793.791.176.307.238.625.264.92.025.275.025.606.025.969v.07c0 .364 0 .694-.025.968a2.2 2.2 0 0 1-.265.92c-.19.33-.463.603-.791.793-.307.177-.625.238-.92.265-.275.024-.606.024-.968.024h-.072c-.363 0-.693 0-.967-.024-.296-.027-.614-.088-.92-.265a2.17 2.17 0 0 1-.793-.792c-.177-.306-.238-.625-.265-.92-.024-.275-.024-.605-.024-.968v-.071c0-.363 0-.694.024-.968.027-.296.088-.614.265-.92.19-.33.463-.603.792-.792.306-.177.625-.239.92-.265.275-.025.605-.025.968-.025m-.989 1.85a.36.36 0 0 0-.132.132.7.7 0 0 0-.031.183c-.017.184-.018.431-.018.841s.001.658.018.841a.7.7 0 0 0 .031.183q.05.083.133.132c.01.005.057.02.183.032.183.017.43.017.84.017.411 0 .658 0 .842-.017a.7.7 0 0 0 .183-.032.36.36 0 0 0 .132-.132.7.7 0 0 0 .032-.183c.016-.183.017-.43.017-.84 0-.411 0-.658-.017-.842a.7.7 0 0 0-.032-.183.36.36 0 0 0-.132-.132.7.7 0 0 0-.183-.032 11 11 0 0 0-.841-.017c-.41 0-.658 0-.841.017a.7.7 0 0 0-.184.032M8.594 12.37h.07c.364 0 .694 0 .968.024.296.027.614.088.92.265.33.19.603.463.793.792.177.306.238.625.265.92.024.275.024.605.024.968v.072c0 .362 0 .693-.024.967-.027.296-.088.614-.265.92a2.15 2.15 0 0 1-.792.792 2.2 2.2 0 0 1-.92.265c-.275.025-.605.025-.968.025h-.071c-.363 0-.694 0-.968-.025a2.2 2.2 0 0 1-.92-.265 2.16 2.16 0 0 1-.792-.791 2.2 2.2 0 0 1-.265-.92c-.025-.275-.025-.606-.025-.968v-.072c0-.363 0-.693.025-.967a2.2 2.2 0 0 1 .265-.92c.19-.33.463-.603.791-.793.307-.177.625-.238.92-.265.275-.024.606-.024.969-.024m-.99 1.848a.36.36 0 0 0-.131.133.7.7 0 0 0-.032.183c-.016.183-.017.43-.017.84 0 .411 0 .658.017.842a.7.7 0 0 0 .032.183q.048.083.132.132c.01.005.057.02.183.032.184.016.431.017.841.017s.658 0 .841-.017a.7.7 0 0 0 .183-.032.36.36 0 0 0 .133-.132.7.7 0 0 0 .031-.183c.017-.184.017-.431.017-.841s0-.658-.017-.841a.7.7 0 0 0-.031-.183.36.36 0 0 0-.133-.133.7.7 0 0 0-.183-.031c-.183-.017-.43-.018-.84-.018-.411 0-.658.001-.842.018a.7.7 0 0 0-.183.031m7.735-1.848h.072c.362 0 .693 0 .967.024.296.027.614.088.92.265.33.19.603.463.793.792.176.306.238.625.264.92.025.275.025.605.025.968v.072c0 .362 0 .693-.025.967a2.2 2.2 0 0 1-.265.92c-.19.33-.463.603-.791.792a2.2 2.2 0 0 1-.92.265c-.275.025-.606.025-.968.025h-.072c-.363 0-.693 0-.967-.025a2.2 2.2 0 0 1-.92-.265 2.16 2.16 0 0 1-.793-.791c-.177-.307-.238-.625-.265-.92-.024-.275-.024-.606-.024-.968v-.072c0-.363 0-.693.024-.967.027-.296.088-.614.265-.92.19-.33.463-.603.792-.793.306-.177.625-.238.92-.265.275-.024.605-.024.968-.024m-.989 1.848a.36.36 0 0 0-.132.133.7.7 0 0 0-.031.183c-.017.183-.018.43-.018.84 0 .411.001.658.018.842a.7.7 0 0 0 .031.183q.05.083.133.132c.01.005.057.02.183.032.183.016.43.017.84.017.411 0 .658 0 .842-.017a.7.7 0 0 0 .183-.032.36.36 0 0 0 .132-.132.7.7 0 0 0 .032-.183c.016-.184.017-.431.017-.841s0-.658-.017-.841a.7.7 0 0 0-.032-.183.36.36 0 0 0-.132-.133.7.7 0 0 0-.183-.031c-.184-.017-.431-.018-.841-.018s-.658.001-.841.018a.7.7 0 0 0-.184.031" clip-rule="evenodd"/></svg>
